!!!ONB: MCCC : ISR0007_02 : Extracted Monophonic Melody
!!!COM: Rachmaninoff, Sergei
!!!OPR: Cello Sonata
!!!OMV: 2
!!!SCT: Op.19
!!!ODT: 1901///
**kern
*staff1
*clefF4
*k[b-e-a-]
*E-:
*M4/4
8AA-
4GG
8FF
8EE-
=6
8r
8DD
4CC
4r
8r
8AA-
=7
4GG
8FF
8EE-
8r
8DD
4CC
=8
4r
8r
8C
8E-
8E-
8E-
8C
=9
8C
8C
8AA-
8AA-
8AA-
8GG
8GG
8GG
=10
4C
4r
2r
=11
1r
=12
1r
=13
1r
=14
4r
8r
8AA-
4GG
8FF
8EE-
=15
8r
8DD
4CC
4r
8r
8AA-
=16
4GG
8GG
8FF
8r
8DD-
4CC
=17
4r
8r
8F
8A-
8A-
8A-
8F
=18
8F
8F
8D-
8D-
8D-
8C
8C
8C
=19
4F
4r
8r
8C
4D
=20
8E-
8F
8r
8G
4A-
4r
=21
8r
8B-
4c
8d
8e-
8r
8DD
=22
4EE-
8EE-
8FF
8r
8FF
8GG
8D
=23
8B
8B
4r
4c
4r
=24
1r
=25
4r
8r
8G
8G
8G
4G
=26
8r
8G
8G
8G
4G
4r
=27
8r
8e-
4d
8c
8B
8r
8A
=28
4G
8r
8G
8G
8G
4G
=29
8r
8G
8G
8G
4G
4r
=30
1r
=31
4r
8r
8F
8F
8F
4F
=32
8r
8F
8F
8F
4F
4r
=33
8r
8d-
4c
8B-
8A-
8r
8G
=34
4F
8r
8F
8F
8F
4F
=35
8r
8F
8F
8F
4F
4r
=36
1r
=37
1r
=38
1r
=39
1r
=40
4r
8r
8GG-
8GG-
8GG-
8FF
8FF
=41
8FF
8EE
8EE
8EE
8EE-
8EE-
8EE-
8DD
=42
8DD
8DD
8DD-
8DD-
8DD-
8GG
8GG
8GG
=43
8CC
8C
8CC
8C
8CC
8C
8CC
8C
=44
8CC
8C
8CC
8C
8CC
8C
8CC
8C
=45
2r
4r
8r
8e-
=46
4d
8c
8B-
8r
8A
4G
=47
8E-
8D
8r
8D
4GG
4r
=48
1r
=49
1r
=50
8r
4.g
2e-
=51
2e-[
8e-]
4.g
=52
1e-[
=53
8e-]
4.g
4.b-
8cc[
=54
4cc]
4b-[
8b-]
4.g
=55
1d[
=56
8d]
4.g
2d
=57
2d[
8d]
4.f
=58
1d-[
=59
8d-]
4.f
2a-[
=60
4a-]
4g[
8g]
4.f
=61
1d-[
=62
8d-]
4.f
2d-
=63
2d-[
8d-]
4.f
=64
1d-[
=65
8d-]
4.f
4.a-
8b-[
=66
4b-]
4a-[
8a-]
4.f
=67
1c[
=68
8c]
4.f
2c
=69
2c[
8c]
4.e-
=70
1c[
=71
8c]
4.e-
4.f
8g[
=72
4g]
4f[
8f]
4.c
=73
4B
4r
2r
=74
8A-
8G
8r
8AA-
4GG
4r
=75
2r
8A-
8G
8r
8AA-
=76
4GG
8r
8a-
4a-
4g[
=77
4.g]
8g
2f[
=78
8f]
8e-
4d
8c
8B
8r
8A-
=79
4G
4r
2r
=80
8D-
8C
8r
8DD-
4CC
4r
=81
2r
8D-
8C
8r
8DD-
=82
4CC
8r
8d-
4d-
4c[
=83
4.c]
8c
2B-[
=84
8B-]
8A-
4D
8E-
8F
8r
8G
=85
4C
4r
2r
=86
1r
=87
1r
=88
1r
=89
4r
8r
8AA-
4GG
8FF
8EE-
=90
8r
8DD
4CC
4r
8r
8AA-
=91
4GG
8FF
8EE-
8r
8DD
4CC
=92
4r
8r
8C
8E-
8E-
8E-
8C
=93
8C
8C
8AA-
8AA-
8AA-
8GG
8GG
8GG
=94
4C
4r
2r
=95
4r
8r
8F
8A-
8A-
8A-
8F
=96
8F
8F
8D-
8D-
8D-
8C
8C
8C
=97
4F
4r
8r
8C
4D
=98
8E-
8F
8r
8G
4A-
4r
=99
8r
8B-
4c
8d
8e-
8r
8DD
=100
4EE-
8EE-
8FF
8r
8FF
8GG
8D
=101
8B
8B
4r
4c
4r
=102
1r
=103
2r
4r
8c
8c
=104
8c
8c
4r
2r
=105
1r
=106
8c
8c
8c
8c
2r
=107
2r
4r
8r
8e-
=108
4e-
2.c[
=109
4.c]
8d
4d
4B[
=110
4B]
4r
2r
=111
4r
8C
8C
8C
8C
4r
=112
1r
=113
2r
8C
8C
8C
8C
=114
1r
=115
4r
8r
8A-
4A-
4F
=116
1F
=117
4G[
2G]
4r
=118
1r
=119
1r
=120
1r
=121
1r
=122
1r
=123
1r
=124
2c
2B-
=125
2.c
4d-
=126
4e-
4d-
4B-
4A-
=127
1c[
=128
4c]
4c
4d-
4e-
=129
4e-
4f
2d-[
=130
4d-]
4e-
4c
4d-
=131
4B-
4F
2G
=132
2c
2B-
=133
2.c
4d-
=134
4e-
4d-
4B-
4A-
=135
2c
2a-
=136
1a-[
=137
2a-]
2a
=138
2a-
2g
=139
2.a-
4A-
=140
2B-
2A-
=141
2.B-
4c
=142
2d-
2c
=143
4d-
4A
4B-
4c
=144
2d-
4g-
4f
=145
2.d-
4e-
=146
2f
4e-
4d-
=147
4c
4B-
4A-
4B-
=148
2c
2B-
=149
2.c
4d-
=150
4e-
4d-
4B-
4A-
=151
1c[
=152
4c]
4c
4d-
4e-
=153
4e-
4f
2d-[
=154
4d-]
4e-
4c
4d-
=155
4B-
4F
2G
=156
2c
2B-
=157
2.c
4d-
=158
4e-
4d-
4B-
4A-
=159
2c
2a-
=160
1a-[
=161
2a-]
2cc
=162
1cc[
=163
2cc]
2ff
=164
1aa-
=165
1aa-[
=166
2aa-]
2a-[
=167
2a-]
2g
=168
2r
2a-[
=169
2a-]
2g
=170
1a-
=171
1a-[
=172
2a-]
2A-[
=173
2A-]
2G
=174
1A-
=175
1A-
=176
1A-[
=177
1A-]
=178
16AA-
16AA-
16AA-
16AA-
16BB
16BB
16BB
16BB
16D
16D
16D
16D
16F
16F
16F
16F
=179
16A-
16A-
16A-
16A-
16B
16B
16B
16B
16d
16d
16d
16d
16f
16f
16f
16f
=180
1a-[
=181
1a-]
=182
4g
4r
2r
=183
1r
=184
1r
=185
1r
=186
1r
=187
1r
=188
1r
=189
1r
=190
4r
8r
8AA-
4GG
8FF
8EE-
=191
8r
8DD
4CC
4r
8r
8AA-
=192
4GG
8FF
8EE-
8r
8DD
4CC
=193
4r
8r
8C
8E-
8E-
8E-
8C
=194
8C
8C
8AA-
8AA-
8AA-
8GG
8GG
8GG
=195
4C
4r
2r
=196
1r
=197
1r
=198
1r
=199
4r
8r
8AA-
4GG
8FF
8EE-
=200
8r
8DD
4CC
4r
8r
8AA-
=201
4GG
8GG
8FF
8r
8DD-
4CC
=202
4r
8r
8F
8A-
8A-
8A-
8F
=203
8F
8F
8D-
8D-
8D-
8C
8C
8C
=204
4F
4r
8r
8C
4D
=205
8E-
8F
8r
8G
4A-
4r
=206
8r
8B-
4c
8d
8e-
8r
8DD
=207
4EE-
8EE-
8FF
8r
8FF
8GG
8D
=208
8B
8B
4r
4c
4r
=209
1r
=210
4r
8r
8G
8G
8G
4G
=211
8r
8G
8G
8G
4G
4r
=212
8r
8e-
4d
8c
8B
8r
8A
=213
4G
8r
8G
8G
8G
4G
=214
8r
8G
8G
8G
4G
4r
=215
1r
=216
4r
8r
8F
8F
8F
4F
=217
8r
8F
8F
8F
4F
4r
=218
8r
8d-
4c
8B-
8A-
8r
8G
=219
4F
8r
8F
8F
8F
4F
=220
8r
8F
8F
8F
4F
4r
=221
1r
=222
1r
=223
1r
=224
1r
=225
4r
8r
8GG-
8GG-
8GG-
8FF
8FF
=226
8FF
8EE
8EE
8EE
8EE-
8EE-
8EE-
8DD
=227
8DD
8DD
8DD-
8DD-
8DD-
8GG
8GG
8GG
=228
8CC
8C
8CC
8C
8CC
8C
8CC
8C
=229
8CC
8C
8CC
8C
8CC
8C
8CC
8C
=230
2r
4r
8r
8e-
=231
4d
8c
8B-
8r
8A
4G
=232
8E-
8D
8r
8D
4GG
4r
=233
1r
=234
1r
=235
8r
4.g
2e-
=236
2e-[
8e-]
4.g
=237
1e-[
=238
8e-]
4.g
4.b-
8cc[
=239
4cc]
4b-[
8b-]
4.g
=240
1d[
=241
8d]
4.g
2d
=242
2d[
8d]
4.f
=243
1d-[
=244
8d-]
4.f
2a-[
=245
4a-]
4g[
8g]
4.f
=246
1d-[
=247
8d-]
4.f
2d-
=248
2d-[
8d-]
4.f
=249
1d-[
=250
8d-]
4.f
4.a-
8b-[
=251
4b-]
4a-[
8a-]
4.f
=252
1c[
=253
8c]
4.f
2c
=254
2c[
8c]
4.e-
=255
1c[
=256
8c]
4.e-
4.f
8g[
=257
4g]
4f[
8f]
4.c
=258
4B
4r
2r
=259
8A-
8G
8r
8AA-
4GG
4r
=260
2r
8A-
8G
8r
8AA-
=261
4GG
8r
8a-
4a-
4g[
=262
4.g]
8g
2f[
=263
8f]
8e-
4d
8c
8B
8r
8A-
=264
4G
4r
2r
=265
8D-
8C
8r
8DD-
4CC
4r
=266
2r
8D-
8C
8r
8DD-
=267
4CC
8r
8d-
4d-
4c[
=268
4.c]
8c
2B-[
=269
8B-]
8A-
4D
8E-
8F
8r
8G
=270
4C
4r
2r
=271
1r
=272
1r
=273
1r
=274
4r
8r
8AA-
4GG
8FF
8EE-
=275
8r
8DD
4CC
4r
8r
8AA-
=276
4GG
8FF
8EE-
8r
8DD
4CC
=277
4r
8r
8C
8E-
8E-
8E-
8C
=278
8C
8C
8AA-
8AA-
8AA-
8GG
8GG
8GG
=279
4C
4r
2r
=280
4r
8r
8F
8A-
8A-
8A-
8F
=281
8F
8F
8D-
8D-
8D-
8C
8C
8C
=282
4F
4r
8r
8C
4D
=283
8E-
8F
8r
8G
4A-
4r
=284
8r
8B-
4c
8d
8e-
8r
8DD
=285
4EE-
8EE-
8FF
8r
8FF
8GG
8D
=286
8B
8B
4r
4c
4r
=287
1r
=288
2r
4r
8c
8c
=289
8c
8c
4r
2r
=290
1r
=291
8c
8c
8c
8c
2r
=292
2r
4r
8r
8e-
=293
4e-
2.c[
=294
4.c]
8d
4d
4B[
=295
4B]
4r
2r
=296
4r
8C
8C
8C
8C
4r
=297
1r
=298
2r
8C
8C
8C
8C
=299
1r
=300
4r
8r
8A-
4A-
4F
=301
1F
=302
4G[
2G]
4r
=303
8CC
8GG
8E-
8c
8E-
8GG
8CC
8GG
=304
8E-
8c
8E-
8GG
8CC
8AA-
8F
8c
=305
8F
8AA-
8CC
8AA-
8E
8c
8E
8AA-
=306
8CC
8GG
8E-
8c
8E-
8GG
8CC
8AA-
=307
8E
8c
8E
8AA-
8CC
8GG
8E
8c
=308
8E
8GG
8CC
8AA
8E-
8c
8E-
8AA
=309
8CC
8AA-
8E-
8c
8E-
8AA-
8CC
8AA-
=310
8F
8B
8F
8AA-
8CC
8AA-
8F
8B
=311
8F
8AA-
8CC
8GG
8F
8B
8F
8GG
=312
8CC
8GG
8E-
8c
2r
=313
1r
=314
2r
4r
8r
8A-
=315
4G
8F
8E-
8r
8D
4C
=316
1r
=317
2r
4r
8r
8AA-
=318
4GG
8FF
8EE-
8r
8DD
4CC
=319
4r
8r
8AA-
4GG
8FF
8EE-
=320
8r
8DD
4CC
4r
8r
8AA-
=321
4GG
8FF
8EE-
8r
8DD
4EE-
=322
8FF
8GG
8r
8BB
4C
8D
8E-
=323
8r
8F
4G
2r
=324
1r
==
*-
